images/icons/source/cards.svg

<svg width="48" height="48" viewBox="0 0 48 48" version="1.1" xmlns="http://www.w3.org/2000/svg" xmlns:xlink="http://www.w3.org/1999/xlink" xmlns:figma="http://www.figma.com/figma/ns">
<title>cards</title>
<desc>Created using Figma</desc>
<g id="Canvas" transform="translate(145 45)" figma:type="canvas">
<mask id="mask0_alpha" mask-type="alpha">
<path d="M -145 -45L -97 -45L -97 3L -145 3L -145 -45Z" fill="#FFFFFF"/>
</mask>
<g id="cards" style="mix-blend-mode:normal;" mask="url(#mask0_alpha)" figma:type="frame">
<g id="Vector" style="mix-blend-mode:normal;" figma:type="vector">
<use xlink:href="#path0_fill" transform="translate(-145 -42)" fill="#3BB75E" style="mix-blend-mode:normal;"/>
<use xlink:href="#path1_fill" transform="translate(-145 -42)" fill="#3BB75E" style="mix-blend-mode:normal;"/>
</g>
</g>
</g>
<defs>
<path id="path0_fill" d="M 44.0902 11.0643L 41.6628 11.0643L 39.4679 2.89659C 39.1971 1.88785 38.5485 1.04552 37.6436 0.524449C 36.7369 0.00216459 35.6826 -0.135695 34.6757 0.136379L 2.89713 8.67997C 1.88839 8.95205 1.04545 9.59944 0.523772 10.5043C 0.00209556 11.4092 -0.135156 12.4623 0.135703 13.4704L 0.59422 15.1751C 0.597257 15.1885 0.593005 15.2018 0.596649 15.2152C 0.6009 15.231 0.611224 15.2431 0.616083 15.2589L 1.96005 20.2583C 1.96309 20.271 1.95945 20.2832 1.96248 20.2965C 1.96673 20.3111 1.97584 20.322 1.9807 20.336L 5.51462 33.4818C 5.7788 34.4638 6.42194 35.2752 7.28128 35.7944C 7.33472 37.9048 9.05947 39.6077 11.182 39.6077L 44.0889 39.6077C 46.2455 39.6077 48 37.8526 48 35.6966L 48 14.9747C 48.0018 12.8182 46.2467 11.0643 44.0902 11.0643ZM 39.6131 9.37716L 33.3347 11.0643L 19.0059 11.0643L 38.6469 5.78251L 39.6131 9.37716ZM 40.0127 10.8657L 40.0667 11.0643L 39.2742 11.0643L 40.0127 10.8657ZM 1.85985 11.2744C 2.17625 10.7266 2.68639 10.3343 3.29795 10.1691L 35.0759 1.6255C 35.6887 1.46092 36.3251 1.54533 36.8735 1.86052C 37.4219 2.17632 37.8149 2.68646 37.9782 3.2968L 38.246 4.294L 13.0683 11.0643L 11.1832 11.0643C 10.0427 11.0643 9.02486 11.5629 8.30945 12.3439L 1.89386 14.0686L 1.62543 13.0696C 1.46024 12.4605 1.54405 11.8222 1.85985 11.2744ZM 7.27217 14.9747L 7.27217 18.0708L 3.25908 19.1493L 2.29346 15.5571L 7.35112 14.198C 7.3001 14.4494 7.27217 14.7087 7.27217 14.9747ZM 3.6593 20.6385L 7.27217 19.6674L 7.27217 33.684C 7.15921 33.4964 7.06265 33.2996 7.00495 33.0828L 3.6593 20.6385ZM 46.4593 35.6972C 46.4593 37.0036 45.3971 38.0657 44.0908 38.0657L 11.1832 38.0657C 9.87691 38.0657 8.81412 37.0036 8.81412 35.6972L 8.81412 14.9747C 8.81412 13.669 9.87691 12.6068 11.1832 12.6068L 44.0902 12.6068C 45.3965 12.6068 46.4587 13.6696 46.4587 14.9747L 46.4593 35.6972Z"/>
<path id="path1_fill" d="M 20.0748 16.4644L 13.1515 16.4644C 12.7258 16.4644 12.3802 16.81 12.3802 17.2357C 12.3802 17.6614 12.7252 18.007 13.1515 18.007L 20.0742 18.007C 20.4999 18.007 20.8455 17.662 20.8455 17.2357C 20.8455 16.8094 20.5005 16.4644 20.0748 16.4644Z"/>
</defs>
</svg>

<svg width="48" height="48" viewBox="0 0 48 48" xmlns="http://www.w3.org/2000/svg" xmlns:xlink="http://www.w3.org/1999/xlink" xmlns:figma="http://www.figma.com/figma/ns">
    <title>
        cards
    </title>
    <desc>
        Created using Figma
    </desc>
    <g transform="translate(145 45)" figma:type="canvas">
        <mask id="a">
            <path d="M-145-45h48V3h-48v-48z" fill="#FFF"/>
        </mask>
        <g style="mix-blend-mode:normal" mask="url(#a)" figma:type="frame">
            <g style="mix-blend-mode:normal" figma:type="vector" transform="translate(-145 -42)" fill="#3BB75E">
                <use xlink:href="#b" style="mix-blend-mode:normal"/>
                <use xlink:href="#c" style="mix-blend-mode:normal"/>
            </g>
        </g>
    </g>
    <defs>
        <path id="b" d="M44.09 11.064h-2.427l-2.195-8.167A3.882 3.882 0 0 0 37.644.524a3.88 3.88 0 0 0-2.968-.388L2.897 8.68a3.89 3.89 0 0 0-2.373 1.824 3.882 3.882 0 0 0-.388 2.966l.458 1.705c.003.013-.001.027.003.04.004.016.014.028.02.044l1.343 5c.003.012 0 .024.002.038.005.014.014.025.019.039l3.534 13.146a3.886 3.886 0 0 0 1.766 2.312 3.91 3.91 0 0 0 3.901 3.814h32.907A3.916 3.916 0 0 0 48 35.697V14.975a3.913 3.913 0 0 0-3.91-3.91zm-4.477-1.687l-6.278 1.687h-14.33l19.642-5.281.966 3.594zm.4 1.489l.054.198h-.793l.739-.198zm-38.153.408a2.36 2.36 0 0 1 1.438-1.105l31.778-8.543a2.354 2.354 0 0 1 1.797.235c.549.315.942.825 1.105 1.436l.268.997-25.178 6.77h-1.885c-1.14 0-2.158.499-2.874 1.28l-6.415 1.725-.269-1a2.344 2.344 0 0 1 .235-1.795zm5.412 3.7v3.097L3.26 19.149l-.966-3.592 5.058-1.359c-.05.251-.079.51-.079.777zM3.66 20.64l3.613-.972v14.017a2.325 2.325 0 0 1-.267-.601L3.659 20.639zm42.8 15.058a2.37 2.37 0 0 1-2.368 2.369H11.183a2.371 2.371 0 0 1-2.369-2.369V14.975a2.371 2.371 0 0 1 2.37-2.368H44.09a2.371 2.371 0 0 1 2.369 2.368v20.722z"/>
        <path id="c" d="M20.075 16.464h-6.923a.772.772 0 0 0 0 1.543h6.922a.771.771 0 0 0 0-1.543z"/>
    </defs>
</svg>
